src/assets/svg/icons/fa/nuevos/classic/thin/list-radio classic thin.svg

<svg xmlns="http://www.w3.org/2000/svg" viewBox="0 0 512 512"><path d="M64 80C72.84 80 80 87.16 80 96C80 104.8 72.84 112 64 112C55.16 112 48 104.8 48 96C48 87.16 55.16 80 64 80zM64 40C94.93 40 120 65.07 120 96C120 126.9 94.93 152 64 152C33.07 152 8 126.9 8 96C8 65.07 33.07 40 64 40zM24 96C24 118.1 41.91 136 64 136C86.09 136 104 118.1 104 96C104 73.91 86.09 56 64 56C41.91 56 24 73.91 24 96zM168 96C168 91.58 171.6 88 176 88H496C500.4 88 504 91.58 504 96C504 100.4 500.4 104 496 104H176C171.6 104 168 100.4 168 96zM168 256C168 251.6 171.6 248 176 248H496C500.4 248 504 251.6 504 256C504 260.4 500.4 264 496 264H176C171.6 264 168 260.4 168 256zM168 416C168 411.6 171.6 408 176 408H496C500.4 408 504 411.6 504 416C504 420.4 500.4 424 496 424H176C171.6 424 168 420.4 168 416zM64 200C94.93 200 120 225.1 120 256C120 286.9 94.93 312 64 312C33.07 312 8 286.9 8 256C8 225.1 33.07 200 64 200zM24 256C24 278.1 41.91 296 64 296C86.09 296 104 278.1 104 256C104 233.9 86.09 216 64 216C41.91 216 24 233.9 24 256zM64 472C33.07 472 8 446.9 8 416C8 385.1 33.07 360 64 360C94.93 360 120 385.1 120 416C120 446.9 94.93 472 64 472zM104 416C104 393.9 86.09 376 64 376C41.91 376 24 393.9 24 416C24 438.1 41.91 456 64 456C86.09 456 104 438.1 104 416z"/></svg>

<svg xmlns="http://www.w3.org/2000/svg" viewBox="0 0 512 512"><!--! Font Awesome Pro 6.4.0 by @fontawesome - https://fontawesome.com License - https://fontawesome.com/license (Commercial License) Copyright 2023 Fonticons, Inc. --><path d="M64 56a40 40 0 1 0 0 80 40 40 0 1 0 0-80zm0 96A56 56 0 1 1 64 40a56 56 0 1 1 0 112zM168 96c0-4.4 3.6-8 8-8H496c4.4 0 8 3.6 8 8s-3.6 8-8 8H176c-4.4 0-8-3.6-8-8zm0 160c0-4.4 3.6-8 8-8H496c4.4 0 8 3.6 8 8s-3.6 8-8 8H176c-4.4 0-8-3.6-8-8zm0 160c0-4.4 3.6-8 8-8H496c4.4 0 8 3.6 8 8s-3.6 8-8 8H176c-4.4 0-8-3.6-8-8zM64 216a40 40 0 1 0 0 80 40 40 0 1 0 0-80zm0 96a56 56 0 1 1 0-112 56 56 0 1 1 0 112zm40 104a40 40 0 1 0 -80 0 40 40 0 1 0 80 0zM8 416a56 56 0 1 1 112 0A56 56 0 1 1 8 416zM64 112a16 16 0 1 1 0-32 16 16 0 1 1 0 32z"/></svg>
